Adwaita++/mimetypes/symbolic/x-office-calendar-symbolic.svg

<svg height="16" width="16" xmlns="http://www.w3.org/2000/svg">
  <g fill="#474747">
    <path d="m2.969 1.01c-1.053 0-2 .846-2 1.938v10.115c0 1.092.947 1.937 2 1.937h10.031c1.052 0 2-.845 2-1.937v-10.115c0-1.092-.948-1.937-2-1.937zm0 3.99h2.031v2h-2.031zm3.031 0h3v2h-3zm4 0h3v2h-3zm-7.031 3h2.031v2h-2.031zm3.031 0h3v2h-3zm4 0h3v2h-3zm-7.031 3h2.031v2h-2.031zm3.031 0h3v2h-3zm4 0h3v2h-3z"/>
    <path d="m10 8h3v2h-3z" opacity=".35"/>
  </g>
</svg>

<svg xmlns="http://www.w3.org/2000/svg" width="16" height="16">
    <g color="#000" fill="#474747">
        <path d="M2.969 1.01c-1.053 0-2 .846-2 1.938v10.115c0 1.092.947 1.937 2 1.937H13c1.052 0 2-.845 2-1.937V2.948c0-1.092-.948-1.937-2-1.937zm0 3.99H5v2H2.969zM6 5h3v2H6zm4 0h3v2h-3zM2.969 8H5v2H2.969zM6 8h3v2H6zm4 0h3v2h-3zm-7.031 3H5v2H2.969zM6 11h3v2H6zm4 0h3v2h-3z" style="line-height:normal;-inkscape-font-specification:Sans;text-indent:0;text-align:start;text-decoration-line:none;text-transform:none;marker:none" font-weight="400" font-family="Sans" overflow="visible"/>
        <path d="M10 8h3v2h-3z" style="marker:none" overflow="visible" opacity=".35"/>
    </g>
</svg>
